X:91
T:Parson of Eltham. Ru2.091, The
%%VWML:RutherfordVol2-2249-p46-0
F:http://www.vwml.org/record/RutherfordVol2/2249/p46
B:RUTHERFORD Complete Collection of 200 Country Dances Vol.2; 1759.
Z:vmp.Mike Hicken 2015 www.village-music-project.org.uk
M:6/8
Q:3/8=110
K:F
BGB AFA|BGB A2c|def efg|fga gec|
BGB AFA|BGB A2c|def cfe|f3F3 :|
|: faf afd|ege gec|faf ege|def edc|
(f/g/af) afd|(e/f/ge) gec|agf edc|=B3 c3 :|
W:
W: Cast off one Cu: & Hands round 4 with the third
W: Cu: .|  Cast up again & hands round with the 2d Cu :|
W: cross over two Cu: lead to the top foot it and cast
W: off :||
T:Sleepy Moggy. Ru2.092
L:1/8
B:RUTHERFORD Complete Collection of 200 Country Dances Vol.2; 1759.
Z:vmp.Mike Hicken 2015 www.village-music-project.org.uk
M:C|
Q:1/4=140
K:D
f2 Bd fBde|f2 Ba eAce|f2 Ba fBde|fgaf eAce :|
fBdB fBde|fBdB eAce|fBdB fBde|fgaf eAce :|
W:
W: The first & 2d Cu: foot it & change sides .|
W: foot it & change sides back again :|  Cross
W: over half figure .|  Lead to the top foot it
W: & cast off :|
